X:1
T:House of Edinglassie, The
T:House of Edinglassie, The
T:Alexander Walker
C:Alexander Walker
L:1/8
M:2/2
K:Emin
V:1 treble 
V:1
 (B,E)EF G2 GB | ABAG FdFD | B,EEF G2 GA | AFdF E/E/EE :| f | eAef g2 ge | fbag fddf | eBef g2 ge | %8
 dBAF E/E/E Ef | eBef g2 ge | gbge fafd | Begf e2 BG | AcBD E/E/EE || %13

